assets/img/braze_icons/globe-03.svg

<svg fill="none" height="24" viewBox="0 0 24 24" width="24" xmlns="http://www.w3.org/2000/svg"><path clip-rule="evenodd" d="m23 12c0-6.07464-4.9241-10.9992-10.9985-11h-.0038c-6.07406.00123-10.9977 4.92562-10.9977 11 0 6.0751 4.92487 11 11 11 6.0751 0 11-4.9249 11-11zm-19.56062-2.7856c.88773-2.73 3.04502-4.88729 5.77501-5.77501-.53172.80048-.94214 1.6835-1.25591 2.59446-.16807.48797-.31011.9886-.42912 1.49551-.50691.11901-1.00754.26105-1.49551.42912-.91096.31377-1.79398.72419-2.59447 1.25592zm0 5.5712c.88773 2.73 3.04502 4.8873 5.77502 5.775-.53173-.8005-.94214-1.6835-1.25591-2.5944-.16808-.488-.31012-.9887-.42913-1.4956-.50691-.119-1.00754-.261-1.49551-.4291-.91096-.3138-1.79398-.7242-2.59447-1.2559zm6.25901 2.0603c.04757.1581.09789.3145.15107.4689.48334 1.4033 1.18424 2.5893 2.15054 3.4294.9663-.8401 1.6672-2.0261 2.1505-3.4294.0532-.1544.1035-.3108.1511-.4689-.7739.0907-1.5415.1385-2.2808.1539-.0139.0003-.0277.0003-.0416 0-.7393-.0154-1.5069-.0632-2.28081-.1539zm5.06661-2.0809c-.9182.1422-1.8545.215-2.765.2348-.9105-.0198-1.8468-.0926-2.76498-.2348-.14226-.9182-.21502-1.8545-.23479-2.765.01977-.9105.09253-1.8468.23479-2.76498.91818-.14226 1.85448-.21503 2.76498-.23479.9105.01976 1.8468.09253 2.765.23479.1422.91818.215 1.85448.2348 2.76498-.0198.9105-.0926 1.8468-.2348 2.765zm1.7056 1.7056c-.119.5069-.261 1.0076-.4291 1.4955-.3138.911-.7242 1.794-1.2559 2.5945 2.73-.8877 4.8873-3.045 5.775-5.775-.8005.5317-1.6835.9421-2.5944 1.2559-.488.1681-.9886.3101-1.4956.4291zm4.09-7.2562c-.8877-2.73-3.045-4.88728-5.775-5.77501.5317.80048.9421 1.6835 1.2559 2.59446.1681.48797.3101.9886.4291 1.49551.507.11901 1.0076.26105 1.4956.42912.9109.31377 1.7939.72419 2.5944 1.25592zm-3.7147.48399c.1581.04757.3145.09789.4689.15106 1.4033.48335 2.5893 1.18425 3.4294 2.15055-.8401.9663-2.0261 1.6672-3.4294 2.1505-.1544.0532-.3108.1035-.4689.1511.0907-.7739.1385-1.5415.1539-2.2808.0003-.0139.0003-.0277 0-.0416-.0154-.7393-.0632-1.5069-.1539-2.28081zm-2.5443-2.54427c-.0476-.15815-.0979-.31455-.1511-.46895-.4833-1.40328-1.1842-2.5893-2.1505-3.42934-.9663.84004-1.6672 2.02607-2.15055 3.42935-.05317.15439-.1035.31079-.15106.46894.77391-.09068 1.54151-.1385 2.28081-.1539.0139-.00029.0277-.00029.0416 0 .7393.0154 1.5069.06322 2.2808.1539zm-7.14748 2.54427c-.09068.77391-.1385 1.54151-.1539 2.28081-.00029.0139-.00029.0277 0 .0416.0154.7393.06322 1.5069.1539 2.2808-.15815-.0476-.31455-.0979-.46894-.1511-1.40328-.4833-2.58931-1.1842-3.42935-2.1505.84004-.9663 2.02607-1.6672 3.42935-2.15055.15439-.05318.31079-.1035.46894-.15106z" fill="#801ed7" fill-rule="evenodd"/></svg>

<svg width="24" height="24" viewBox="0 0 24 24" fill="none" xmlns="http://www.w3.org/2000/svg">
<path fill-rule="evenodd" clip-rule="evenodd" d="M23 12C23 5.92536 18.0759 1.0008 12.0015 1H11.9977C5.92364 1.00123 1 5.92562 1 12C1 18.0751 5.92487 23 12 23C18.0751 23 23 18.0751 23 12ZM3.43938 9.2144C4.32711 6.4844 6.4844 4.32711 9.21439 3.43939C8.68267 4.23987 8.27225 5.12289 7.95848 6.03385C7.79041 6.52182 7.64837 7.02245 7.52936 7.52936C7.02245 7.64837 6.52182 7.79041 6.03385 7.95848C5.12289 8.27225 4.23987 8.68267 3.43938 9.2144ZM3.43938 14.7856C4.32711 17.5156 6.4844 19.6729 9.2144 20.5606C8.68267 19.7601 8.27226 18.8771 7.95849 17.9662C7.79041 17.4782 7.64837 16.9775 7.52936 16.4706C7.02245 16.3516 6.52182 16.2096 6.03385 16.0415C5.12289 15.7277 4.23987 15.3173 3.43938 14.7856ZM9.69839 16.8459C9.74596 17.004 9.79628 17.1604 9.84946 17.3148C10.3328 18.7181 11.0337 19.9041 12 20.7442C12.9663 19.9041 13.6672 18.7181 14.1505 17.3148C14.2037 17.1604 14.254 17.004 14.3016 16.8459C13.5277 16.9366 12.7601 16.9844 12.0208 16.9998C12.0069 17.0001 11.9931 17.0001 11.9792 16.9998C11.2399 16.9844 10.4723 16.9366 9.69839 16.8459ZM14.765 14.765C13.8468 14.9072 12.9105 14.98 12 14.9998C11.0895 14.98 10.1532 14.9072 9.23502 14.765C9.09276 13.8468 9.02 12.9105 9.00023 12C9.02 11.0895 9.09276 10.1532 9.23502 9.23502C10.1532 9.09276 11.0895 9.01999 12 9.00023C12.9105 9.01999 13.8468 9.09276 14.765 9.23502C14.9072 10.1532 14.98 11.0895 14.9998 12C14.98 12.9105 14.9072 13.8468 14.765 14.765ZM16.4706 16.4706C16.3516 16.9775 16.2096 17.4782 16.0415 17.9661C15.7277 18.8771 15.3173 19.7601 14.7856 20.5606C17.5156 19.6729 19.6729 17.5156 20.5606 14.7856C19.7601 15.3173 18.8771 15.7277 17.9662 16.0415C17.4782 16.2096 16.9776 16.3516 16.4706 16.4706ZM20.5606 9.2144C19.6729 6.4844 17.5156 4.32712 14.7856 3.43939C15.3173 4.23987 15.7277 5.12289 16.0415 6.03385C16.2096 6.52182 16.3516 7.02245 16.4706 7.52936C16.9776 7.64837 17.4782 7.79041 17.9662 7.95848C18.8771 8.27225 19.7601 8.68267 20.5606 9.2144ZM16.8459 9.69839C17.004 9.74596 17.1604 9.79628 17.3148 9.84945C18.7181 10.3328 19.9041 11.0337 20.7442 12C19.9041 12.9663 18.7181 13.6672 17.3148 14.1505C17.1604 14.2037 17.004 14.254 16.8459 14.3016C16.9366 13.5277 16.9844 12.7601 16.9998 12.0208C17.0001 12.0069 17.0001 11.9931 16.9998 11.9792C16.9844 11.2399 16.9366 10.4723 16.8459 9.69839ZM14.3016 7.15412C14.254 6.99597 14.2037 6.83957 14.1505 6.68517C13.6672 5.28189 12.9663 4.09587 12 3.25583C11.0337 4.09587 10.3328 5.2819 9.84945 6.68518C9.79628 6.83957 9.74595 6.99597 9.69839 7.15412C10.4723 7.06344 11.2399 7.01562 11.9792 7.00022C11.9931 6.99993 12.0069 6.99993 12.0208 7.00022C12.7601 7.01562 13.5277 7.06344 14.3016 7.15412ZM7.15412 9.69839C7.06344 10.4723 7.01562 11.2399 7.00022 11.9792C6.99993 11.9931 6.99993 12.0069 7.00022 12.0208C7.01562 12.7601 7.06344 13.5277 7.15412 14.3016C6.99597 14.254 6.83957 14.2037 6.68518 14.1505C5.2819 13.6672 4.09587 12.9663 3.25583 12C4.09587 11.0337 5.2819 10.3328 6.68518 9.84945C6.83957 9.79627 6.99597 9.74595 7.15412 9.69839Z" fill="#801ED7"/>
</svg>
